libs/icons/src/svg/assessment.svg

<svg width="16" height="16" viewBox="0 0 16 16" fill="none" xmlns="http://www.w3.org/2000/svg">
<path fill-rule="evenodd" clip-rule="evenodd" d="M12.5206 2.41646C12.7506 2.12896 12.704 1.70943 12.4165 1.47942C12.129 1.24941 11.7094 1.29603 11.4794 1.58354L3.94474 11.0019L1.80476 8.86193C1.54441 8.60158 1.1223 8.60158 0.861949 8.86193C0.6016 9.12228 0.6016 9.54439 0.861949 9.80474L3.52862 12.4714C3.6627 12.6055 3.84755 12.6761 4.03689 12.6656C4.22623 12.6552 4.40214 12.5645 4.5206 12.4165L12.5206 2.41646ZM13.3334 4.66664C12.9652 4.66664 12.6667 4.96512 12.6667 5.33331C12.6667 5.7015 12.9652 5.99998 13.3334 5.99998H15.3334C15.7015 5.99998 16 5.7015 16 5.33331C16 4.96512 15.7015 4.66664 15.3334 4.66664H13.3334ZM10 8.66664C10 8.29845 10.2985 7.99998 10.6667 7.99998H15.3334C15.7015 7.99998 16 8.29845 16 8.66664C16 9.03483 15.7015 9.33331 15.3334 9.33331H10.6667C10.2985 9.33331 10 9.03483 10 8.66664ZM8.00002 11.3333C7.63183 11.3333 7.33335 11.6318 7.33335 12C7.33335 12.3682 7.63183 12.6666 8.00002 12.6666H15.3334C15.7015 12.6666 16 12.3682 16 12C16 11.6318 15.7015 11.3333 15.3334 11.3333H8.00002Z" fill="#202327"/>
</svg>

<svg xmlns="http://www.w3.org/2000/svg" viewBox="0 0 16 16" class="sageicon"><path fill-rule="evenodd" d="M12.52 2.416a.667.667 0 1 0-1.04-.832l-7.535 9.418-2.14-2.14a.667.667 0 0 0-.943.943l2.667 2.666a.667.667 0 0 0 .992-.055l8-10Zm.813 2.25a.667.667 0 1 0 0 1.334h2a.667.667 0 0 0 0-1.333h-2Zm-3.333 4c0-.368.299-.666.667-.666h4.666a.667.667 0 0 1 0 1.333h-4.666A.667.667 0 0 1 10 8.667Zm-2 2.667a.667.667 0 0 0 0 1.334h7.333a.667.667 0 0 0 0-1.334H8Z"/></svg>
